assets/images/logo-mini.svg

<svg width="50" height="51" viewBox="0 0 50 51" fill="none" xmlns="http://www.w3.org/2000/svg">
<g clip-path="url(#clip0_2_9910)">
<path d="M42.3984 33.422C42.3984 34.6689 42.2605 38.8022 40.5173 42.6123C40.1007 43.5306 39.5875 44.4015 38.9865 45.2101C38.6472 45.6836 38.2624 46.1225 37.8378 46.5205C35.7585 48.5035 32.5994 49.5426 28.7769 49.5426C27.8613 49.5405 26.9465 49.4855 26.0371 49.3781C21.3851 48.8026 16.9307 47.1453 13.0273 44.5376C5.87054 39.6307 3.1537 32.126 2.1715 28.085C1.41906 25.0601 0.077878 16.9492 4.93715 9.90063C5.95897 8.4065 7.16523 7.04867 8.52705 5.85965C8.52566 5.84815 8.52566 5.83652 8.52705 5.82501H8.55576C10.2248 4.37489 12.1457 3.24666 14.222 2.49697C16.1534 1.82276 18.18 1.46508 20.2243 1.43765C27.9957 1.37126 33.9147 6.51774 36.307 8.98562L45.3938 3.79008C45.5809 3.68378 45.8023 3.65632 46.0095 3.71366C46.2167 3.771 46.3929 3.90849 46.4995 4.09606C46.6052 4.2841 46.6326 4.50658 46.5755 4.71485C46.5185 4.92311 46.3817 5.10018 46.1951 5.20732L37.4587 10.195C39.0791 12.0396 40.258 14.2325 40.905 16.6058C41.4772 18.7124 41.6208 20.9134 41.3272 23.0771C43.191 22.1477 45.098 22.0091 46.5253 22.8404C47.0126 23.1261 47.4355 23.5104 47.7673 23.9691C48.099 24.4277 48.3323 24.9506 48.4524 25.5046C49.0555 28.2409 46.5138 31.5285 42.3984 33.422Z" fill="white"/>
<path d="M49.8872 25.2213C49.7248 24.4693 49.4086 23.7595 48.9587 23.1369C48.5088 22.5143 47.935 21.9925 47.2737 21.6046C45.9487 20.8805 44.404 20.6749 42.9371 21.0274C42.9492 19.4132 42.7415 17.805 42.3197 16.2475C41.7692 14.2324 40.8636 12.3329 39.6459 10.6392L46.9233 6.48564C47.4398 6.18797 47.8181 5.69705 47.9757 5.12005C48.1334 4.54306 48.0576 3.92683 47.7648 3.40582C47.4686 2.88677 46.9802 2.50653 46.4061 2.34808C45.832 2.18964 45.2189 2.26584 44.7005 2.56009L36.5615 7.1899C33.7815 4.53152 27.9285 -0.00878906 20.3983 -0.00878906H20.2375C18.0331 0.0249054 15.8484 0.414739 13.7671 1.14578C13.164 1.36226 12.6643 1.57584 12.2794 1.75191C10.4464 2.59193 8.75464 3.71376 7.26509 5.07707C5.95264 6.27568 4.78268 7.62298 3.77858 9.09206C-0.62406 15.4826 -0.285154 22.6293 0.424208 26.6559H0.358125L0.791786 28.4426C1.8228 32.6885 4.68038 40.5828 12.2335 45.761C16.33 48.4976 21.0046 50.237 25.8866 50.8411C26.8503 50.9545 27.8197 51.0124 28.7901 51.0143C33.0204 51.0143 36.4954 49.8337 38.8418 47.5997C39.3256 47.1408 39.7633 46.6352 40.1485 46.0901C40.8078 45.1996 41.37 44.2407 41.8257 43.2296C43.365 39.8641 43.7413 36.3311 43.8188 34.3453C48.0951 32.0794 50.5649 28.4223 49.8872 25.2213ZM41.7998 32.1112L40.9612 32.4951V33.4216C40.9612 34.5415 40.8349 38.4613 39.2122 42.0116C38.8396 42.841 38.3794 43.6277 37.8395 44.3582L37.8165 44.39C37.535 44.7868 37.2156 45.1551 36.863 45.4897C35.0624 47.2071 32.2679 48.1135 28.7901 48.1135C27.9263 48.1117 27.0633 48.0606 26.2053 47.9605C21.7825 47.4137 17.5474 45.8384 13.836 43.3595C7.54941 39.0617 4.8814 32.5874 3.78433 28.61L3.57181 27.744C2.83948 24.8028 1.62466 17.2606 6.12495 10.7142C7.05466 9.34972 8.14852 8.10588 9.38169 7.01095L9.50232 6.90704C11.0394 5.57294 12.8071 4.53392 14.7177 3.84167C16.498 3.2226 18.3653 2.89325 20.249 2.86607H20.384C27.6298 2.86607 33.2071 7.83069 35.2749 9.9753L36.0503 10.7777L36.3719 11.1443C37.8576 12.8207 38.9386 14.8189 39.531 16.9835C40.0508 18.9024 40.1817 20.9068 39.9159 22.8775L39.5511 25.5735L41.9779 24.3641C43.4569 23.628 44.8498 23.5241 45.8205 24.0754C46.1324 24.2604 46.4032 24.5077 46.6161 24.8021C46.8291 25.0965 46.9796 25.4318 47.0583 25.7871C47.5035 27.8249 45.2346 30.5323 41.7998 32.1112Z" fill="white"/>
<path d="M48.481 25.5158C48.3606 24.9619 48.1272 24.4392 47.7955 23.9806C47.4638 23.522 47.0411 23.1376 46.554 22.8516C45.118 22.0203 43.2225 22.1589 41.3587 23.0883C41.6508 20.9246 41.5073 18.7239 40.9365 16.617C40.2882 14.2443 39.1095 12.0517 37.4902 10.2063L46.2266 5.21855C46.3193 5.16577 46.4007 5.09512 46.4662 5.01066C46.5317 4.92621 46.5799 4.82962 46.6082 4.72639C46.6365 4.62316 46.6442 4.51534 46.631 4.40911C46.6177 4.30287 46.5837 4.20027 46.531 4.10725C46.4249 3.91988 46.2493 3.78246 46.0425 3.7251C45.8358 3.66774 45.6148 3.69515 45.4282 3.80131L36.3414 8.99685C33.9578 6.52897 28.0416 1.38249 20.2587 1.44888C18.2144 1.47601 16.1877 1.8337 14.2564 2.5082C12.1795 3.25847 10.2578 4.38663 8.58728 5.83624H8.56144V5.87088C7.20053 7.05997 5.99523 8.41779 4.97442 9.91184C0.112275 16.9633 1.45346 25.0742 2.20877 28.0962C3.19096 32.1372 5.90781 39.6419 13.0646 44.5488C16.968 47.1565 21.4224 48.8139 26.0744 49.3893C26.9837 49.4969 27.8985 49.5518 28.8142 49.5538C32.6367 49.5538 35.7958 48.5147 37.875 46.5317C38.2989 46.133 38.6836 45.6941 39.0238 45.2213C39.6229 44.412 40.135 43.5412 40.5517 42.6235C42.2949 38.8135 42.4356 34.6801 42.4356 33.4332C46.5138 31.5282 49.0554 28.2405 48.481 25.5158ZM9.42301 6.38752C10.7609 5.26604 12.2609 4.356 13.8716 3.68874C17.3587 4.91203 20.5589 6.84147 23.2742 9.35765C24.7824 10.7604 26.1257 12.3322 27.2777 14.0423L11.33 23.0883C10.472 21.1729 9.8341 19.1654 9.42876 17.1048C8.7347 13.5666 8.73274 9.92645 9.42301 6.38752ZM20.253 2.41871H20.4081C27.5017 2.41871 32.9899 7.01099 35.3937 9.44135L28.122 13.566C26.92 11.7678 25.5138 10.1162 23.9319 8.6447C21.4099 6.30518 18.4792 4.45466 15.2875 3.1865C16.9029 2.69949 18.578 2.44106 20.2645 2.41871H20.253ZM5.74695 10.466C6.48962 9.38348 7.33089 8.37274 8.25987 7.44685C7.7675 10.7178 7.84135 14.0496 8.47814 17.2953C8.90548 19.4569 9.58008 21.5616 10.4885 23.5674L3.10481 27.7556C2.38396 24.7797 1.17775 17.1134 5.75845 10.466H5.74695ZM41.7062 32.6625L41.419 32.7924V33.1215C41.419 33.6208 41.5023 38.1121 39.6298 42.205C39.2405 43.0697 38.759 43.8894 38.1939 44.6498C37.894 45.0748 37.5535 45.4692 37.1772 45.8274C32.1169 50.6506 20.678 48.6013 13.5787 43.7464C12.1113 42.7498 10.7623 41.5876 9.55798 40.2827C11.6918 39.5091 13.1967 37.6849 13.4006 35.5865C13.616 33.3437 12.2519 31.736 11.9819 31.4329C14.3196 31.5917 16.2898 29.8454 16.4707 27.7499C16.6143 26.0353 15.523 24.3699 13.886 23.6829L36.597 10.7143C38.1925 12.4764 39.3525 14.5916 39.983 16.8883C40.5931 19.1202 40.6913 21.4622 40.2702 23.7378C39.4486 24.2935 38.7032 24.9554 38.0531 25.7063L38.7797 26.3471C41.0772 23.706 44.153 22.5947 46.0657 23.7089C46.434 23.9276 46.7538 24.2197 47.0057 24.5671C47.2576 24.9146 47.4361 25.3101 47.5304 25.7294C48.0301 28.0558 45.5833 30.9769 41.7177 32.6625H41.7062Z" fill="#022F45"/>
<path d="M28.8748 38.2825C26.7554 37.9506 24.9949 36.9028 23.3809 35.4769C23.7687 35.0458 24.2462 34.7058 24.7795 34.4811C25.4013 34.2205 26.0674 34.0833 26.741 34.077C25.4515 33.1476 23.4843 33.5805 22.4705 34.7899C21.4108 35.9618 21.2471 37.965 22.324 39.1398C22.1527 37.9363 22.4557 36.7132 23.1684 35.7309C23.545 36.6499 24.1255 37.4703 24.8657 38.1295C26.1664 39.2913 27.8469 39.9314 29.5871 39.9278C31.5515 39.9278 33.5905 39.0849 34.8283 37.5291C32.9013 38.2017 30.8909 38.6144 28.8748 38.2825Z" fill="#022F45"/>
<path d="M31.4735 24.5575C29.7131 24.7711 28.1277 23.7955 27.068 22.2628C26.9589 24.5719 29.3857 26.5174 31.6832 26.1508C33.9979 25.8881 35.8044 23.3452 35.0261 21.1284C34.4661 22.8978 33.2254 24.3092 31.4735 24.5575Z" fill="#022F45"/>
<path d="M29.334 18.9492C30.6895 18.0255 32.1686 17.4771 33.7854 17.7946C34.3356 17.9048 34.8735 18.0702 35.3909 18.2882C34.0497 15.8752 30.1582 16.3254 29.334 18.9492Z" fill="#022F45"/>
</g>
<defs>
<clipPath id="clip0_2_9910">
<rect width="50" height="51" fill="white"/>
</clipPath>
</defs>
</svg>

<svg width="50" height="51" fill="none" xmlns="http://www.w3.org/2000/svg"><g clip-path="url(#a)"><path d="M42.398 33.422c0 1.247-.138 5.38-1.88 9.19-.417.919-.93 1.79-1.532 2.598-.339.474-.724.913-1.148 1.31-2.08 1.983-5.239 3.023-9.061 3.023a23.827 23.827 0 0 1-2.74-.165 30.063 30.063 0 0 1-13.01-4.84C5.871 39.63 3.154 32.126 2.172 28.085 1.418 25.06.078 16.949 4.937 9.901a21.405 21.405 0 0 1 3.59-4.041.144.144 0 0 1 0-.035h.029a17.918 17.918 0 0 1 5.666-3.328 18.984 18.984 0 0 1 6.002-1.06c7.772-.066 13.69 5.08 16.083 7.549l9.087-5.196a.81.81 0 0 1 1.105.306.82.82 0 0 1-.304 1.111l-8.736 4.988a16.15 16.15 0 0 1 3.446 6.41 16.32 16.32 0 0 1 .422 6.472c1.864-.93 3.771-1.068 5.198-.237a4.08 4.08 0 0 1 1.927 2.665c.604 2.736-1.938 6.024-6.054 7.917Z" fill="#fff"/><path d="M49.887 25.221a5.564 5.564 0 0 0-.928-2.084 5.533 5.533 0 0 0-1.685-1.532 6.079 6.079 0 0 0-4.337-.578 17.776 17.776 0 0 0-.617-4.78 17.514 17.514 0 0 0-2.674-5.608l7.277-4.153a2.275 2.275 0 0 0 .842-3.08A2.244 2.244 0 0 0 44.7 2.56l-8.14 4.63C33.782 4.532 27.929-.01 20.399-.01h-.16c-2.205.034-4.39.424-6.47 1.155-.604.216-1.104.43-1.489.606a19.396 19.396 0 0 0-5.014 3.325A23.057 23.057 0 0 0 3.78 9.092C-.624 15.482-.285 22.63.424 26.656H.358l.434 1.787c1.03 4.245 3.888 12.14 11.441 17.318a31.553 31.553 0 0 0 13.654 5.08c.963.114 1.933.171 2.903.173 4.23 0 7.705-1.18 10.052-3.414a10.17 10.17 0 0 0 1.306-1.51c.66-.89 1.222-1.85 1.678-2.86 1.539-3.366 1.915-6.899 1.993-8.885 4.276-2.266 6.746-5.923 6.068-9.124Zm-8.087 6.89-.839.384v.927c0 1.12-.126 5.04-1.749 8.59-.372.829-.833 1.616-1.373 2.346l-.023.032c-.281.397-.6.765-.953 1.1-1.8 1.717-4.595 2.623-8.073 2.623a22.714 22.714 0 0 1-2.585-.152 28.584 28.584 0 0 1-12.369-4.602C7.549 39.063 4.881 32.587 3.784 28.61l-.212-.866c-.733-2.941-1.947-10.483 2.553-17.03a20.05 20.05 0 0 1 3.257-3.703l.12-.104a16.566 16.566 0 0 1 5.216-3.065c1.78-.62 3.647-.949 5.531-.976h.135c7.246 0 12.823 4.965 14.89 7.11l.776.802.322.366a14.623 14.623 0 0 1 3.159 5.84c.52 1.918.65 3.923.385 5.893l-.365 2.697 2.427-1.21c1.479-.736 2.872-.84 3.843-.289a2.65 2.65 0 0 1 1.237 1.712c.446 2.038-1.823 4.745-5.258 6.324Z" fill="#fff"/><path d="M48.481 25.516a4.108 4.108 0 0 0-1.927-2.664c-1.436-.832-3.332-.693-5.195.236a16.373 16.373 0 0 0-.422-6.471 16.188 16.188 0 0 0-3.447-6.41l8.737-4.988a.811.811 0 0 0 .404-.81.819.819 0 0 0-.589-.684.806.806 0 0 0-.614.076l-9.087 5.196c-2.383-2.468-8.3-7.615-16.082-7.548a18.967 18.967 0 0 0-6.003 1.06 17.961 17.961 0 0 0-5.669 3.327h-.026v.035a21.39 21.39 0 0 0-3.587 4.04C.112 16.964 1.454 25.075 2.21 28.097c.982 4.041 3.699 11.546 10.856 16.453a30.062 30.062 0 0 0 13.01 4.84c.909.108 1.823.163 2.74.165 3.822 0 6.98-1.04 9.06-3.022a9.077 9.077 0 0 0 1.149-1.31c.599-.81 1.111-1.68 1.528-2.599 1.743-3.81 1.884-7.943 1.884-9.19 4.078-1.905 6.62-5.192 6.045-7.917ZM9.423 6.388a17.132 17.132 0 0 1 4.449-2.7 26.968 26.968 0 0 1 9.402 5.67 26.993 26.993 0 0 1 4.004 4.684L11.33 23.088a27.728 27.728 0 0 1-1.901-5.983 27.917 27.917 0 0 1-.006-10.717Zm10.83-3.97h.155c7.094 0 12.582 4.593 14.986 7.023l-7.272 4.125a27.886 27.886 0 0 0-4.19-4.921 27.812 27.812 0 0 0-8.644-5.458 18.071 18.071 0 0 1 4.977-.768h-.012ZM5.747 10.467a21.177 21.177 0 0 1 2.513-3.02 28.851 28.851 0 0 0 .218 9.85 28.69 28.69 0 0 0 2.01 6.271l-7.383 4.189c-.721-2.976-1.927-10.643 2.653-17.29h-.011Zm35.96 22.197-.288.13v.328c0 .5.083 4.991-1.79 9.084-.389.865-.87 1.684-1.435 2.445-.3.425-.64.82-1.017 1.177-5.06 4.824-16.499 2.774-23.598-2.08a23.24 23.24 0 0 1-4.021-3.464c2.134-.774 3.639-2.598 3.843-4.697.215-2.242-1.15-3.85-1.42-4.153 2.339.159 4.309-1.588 4.49-3.683.143-1.715-.948-3.38-2.585-4.067l22.711-12.969a15.189 15.189 0 0 1 3.386 6.174c.61 2.232.708 4.574.287 6.85a11.326 11.326 0 0 0-2.217 1.968l.727.641c2.297-2.641 5.373-3.752 7.286-2.638a3.145 3.145 0 0 1 1.464 2.02c.5 2.327-1.947 5.248-5.812 6.934h-.012Z" fill="#022F45"/><path d="M28.875 38.282c-2.12-.331-3.88-1.38-5.494-2.805a3.938 3.938 0 0 1 1.398-.996 5.2 5.2 0 0 1 1.962-.404c-1.29-.93-3.257-.496-4.27.713-1.06 1.172-1.224 3.175-.147 4.35a4.682 4.682 0 0 1 .844-3.41c.377.92.957 1.74 1.698 2.4a7.065 7.065 0 0 0 4.721 1.798c1.965 0 4.003-.843 5.241-2.399-1.927.673-3.937 1.085-5.953.753ZM31.474 24.558c-1.76.213-3.346-.762-4.406-2.295-.11 2.309 2.318 4.254 4.615 3.888 2.315-.263 4.121-2.806 3.343-5.023-.56 1.77-1.8 3.181-3.553 3.43ZM29.334 18.95c1.355-.924 2.835-1.473 4.451-1.155.55.11 1.089.275 1.606.493-1.341-2.413-5.233-1.963-6.057.661Z" fill="#022F45"/></g><defs><clipPath id="a"><path fill="#fff" d="M0 0h50v51H0z"/></clipPath></defs></svg>
